X: 3
T: Follow Me Down To Milltown
R: barndance
M: 4/4
L: 1/8
K: Dmaj
|: (3ABA F>A (3ABA F>A | (3BcB G>B (3BcB d>B | (3ABA F>A (3ABA F>D | E>FG>A B>cd>B |
(3ABA F>A (3ABA F>A | (3BcB G>B (3BcB d>B | A>dc>B (3ABA (3GFE | (3DED C>E D4 :|
|: A>df>d A>df>d | A>ce>c A>ce>c | A>df>d A>df>d | e>dc>e d>cd>B |
A>df>d a>df>d | A>ce>c a>ce>c | (3ded c>B (3ABA (3GFE | (3DED C>E D4 :|


Tune 252	Setting 12980

